X:1
T:Bold McGuinness
N:slow air, sung and played on fiddle by Sally Sloane
Z:Ian Hayden, 2017
L:1/8
M:3/4
K:Cmaj
DC|A,2D2-DE|D2 D2EF|G2G2G2|C2-C2DE|
F2G2A>B |c2A2ED|E2D2D2|D4 AB|]
|c2E2c2|B2A3G|A2D2B,2|C4 DE|
|F2G2A>B |c2A2ED|E2D2D2|D6|]
